apps/16/deluge.svg

<?xml version="1.0" encoding="UTF-8" standalone="no"?>
<!-- Created with Inkscape (http://www.inkscape.org/) -->

<svg
   xmlns:dc="http://purl.org/dc/elements/1.1/"
   xmlns:cc="http://creativecommons.org/ns#"
   xmlns:rdf="http://www.w3.org/1999/02/22-rdf-syntax-ns#"
   xmlns:svg="http://www.w3.org/2000/svg"
   xmlns="http://www.w3.org/2000/svg"
   xmlns:sodipodi="http://sodipodi.sourceforge.net/DTD/sodipodi-0.dtd"
   xmlns:inkscape="http://www.inkscape.org/namespaces/inkscape"
   width="16"
   height="16"
   id="svg27665"
   version="1.1"
   inkscape:version="0.48.3.1 r9886"
   sodipodi:docname="deluge.svg">
  <defs
     id="defs27667" />
  <sodipodi:namedview
     id="base"
     pagecolor="#ffffff"
     bordercolor="#666666"
     borderopacity="1.0"
     inkscape:pageopacity="0.0"
     inkscape:pageshadow="2"
     inkscape:zoom="32"
     inkscape:cx="2.130464"
     inkscape:cy="9.0301602"
     inkscape:document-units="px"
     inkscape:current-layer="layer1"
     showgrid="true"
     inkscape:window-width="1920"
     inkscape:window-height="1033"
     inkscape:window-x="-10"
     inkscape:window-y="25"
     inkscape:window-maximized="1"
     inkscape:snap-bbox="true"
     inkscape:bbox-paths="true"
     inkscape:bbox-nodes="true"
     inkscape:snap-bbox-edge-midpoints="true"
     inkscape:snap-bbox-midpoints="true"
     inkscape:object-paths="true"
     inkscape:snap-intersection-paths="true"
     inkscape:object-nodes="true"
     inkscape:snap-smooth-nodes="true"
     inkscape:snap-midpoints="true"
     inkscape:snap-object-midpoints="true"
     inkscape:snap-center="true"
     inkscape:snap-global="true"
     showguides="false"
     inkscape:guide-bbox="true"
     fit-margin-top="0"
     fit-margin-left="0"
     fit-margin-right="0"
     fit-margin-bottom="0"
     inkscape:showpageshadow="false">
    <sodipodi:guide
       orientation="0,1"
       position="599.99999,299.99993"
       id="guide3572" />
    <sodipodi:guide
       orientation="1,0"
       position="294.41949,12.121716"
       id="guide3574" />
    <sodipodi:guide
       orientation="0,1"
       position="456.04389,599.99992"
       id="guide3576" />
    <sodipodi:guide
       orientation="0,1"
       position="-2.8882813e-06,-8.4406273e-05"
       id="guide3578" />
    <sodipodi:guide
       orientation="1,0"
       position="-2.8882813e-06,157.58366"
       id="guide3580" />
    <sodipodi:guide
       orientation="1,0"
       position="599.99999,121.21821"
       id="guide3582" />
    <sodipodi:guide
       orientation="0,1"
       position="599.99999,-714.34359"
       id="guide5928" />
    <sodipodi:guide
       orientation="0,1"
       position="599.99999,-414.34359"
       id="guide5930" />
    <sodipodi:guide
       orientation="0,1"
       position="599.99999,-1014.3435"
       id="guide5932" />
    <sodipodi:guide
       orientation="0,1"
       position="451.57029,524.99606"
       id="guide5294" />
    <sodipodi:guide
       orientation="0,1"
       position="451.57029,75.013516"
       id="guide5296" />
    <sodipodi:guide
       orientation="0,1"
       position="496.01499,-931.36409"
       id="guide5413" />
    <sodipodi:guide
       orientation="0,1"
       position="457.34859,-489.34389"
       id="guide5415" />
    <inkscape:grid
       type="xygrid"
       id="grid3070"
       empspacing="5"
       visible="true"
       enabled="true"
       snapvisiblegridlinesonly="true"
       originx="4.3243213e-05px"
       originy="-2.6947047e-05px" />
  </sodipodi:namedview>
  <metadata
     id="metadata27670">
    <rdf:RDF>
      <cc:Work
         rdf:about="">
        <dc:format>image/svg+xml</dc:format>
        <dc:type
           rdf:resource="http://purl.org/dc/dcmitype/StillImage" />
        <dc:title />
      </cc:Work>
    </rdf:RDF>
  </metadata>
  <g
     inkscape:label="Camada 1"
     inkscape:groupmode="layer"
     id="layer1"
     transform="translate(3364.4171,-2100.7186)">
    <path
       id="path2998"
       d="m -3356.4171,2101.7186 c -1.095,0 -5,5.6863 -5,9 0,3.3137 2.5612,5 5,5 2.4387,0 5,-1.6863 5,-5 0,-3.3137 -3.905,-9 -5,-9 z m -1.125,4.125 c 0.1,7e-4 0.2143,0.03 0.3125,0.062 0.7857,0.2575 1.1932,1.4565 0.9062,2.6875 -0.2869,1.231 -1.183,2.0075 -1.9687,1.75 -0.7857,-0.2575 -1.1932,-1.4565 -0.9063,-2.6875 0.2512,-1.0771 0.9596,-1.8171 1.6563,-1.8125 z"
       style="color:#000000;fill:#27303a;fill-opacity:0.753280819999999968;fill-rule:nonzero;stroke:none;stroke-width:2.28571415;marker:none;visibility:visible;display:inline;overflow:visible;enable-background:accumulate"
       inkscape:connector-curvature="0" />
    <path
       style="font-size:medium;font-style:normal;font-variant:normal;font-weight:normal;font-stretch:normal;text-indent:0;text-align:start;text-decoration:none;line-height:normal;letter-spacing:normal;word-spacing:normal;text-transform:none;direction:ltr;block-progression:tb;writing-mode:lr-tb;text-anchor:start;baseline-shift:baseline;color:#000000;fill:#f1f3f5;fill-opacity:0.90288714000000003;fill-rule:nonzero;stroke:none;stroke-width:2;marker:none;visibility:visible;display:inline;overflow:visible;enable-background:accumulate;font-family:Sans;-inkscape-font-specification:Sans"
       d="m 8,-0.1875 c -0.6562,0 -0.9446,0.2663 -1.25,0.5 C 6.4446,0.5462 6.1689,0.82575 5.875,1.15625 5.2872,1.81715 4.6511,2.6542 4.0625,3.625 2.8853,5.5665 2.0000432,7.8718269 2.0000432,10.000027 c 0,1.966 0.5928068,3.605223 1.7812068,4.656223 C 4.96975,15.70715 6.504,16.1875 8,16.1875 c 1.4959,0 3.03035,-0.48035 4.21875,-1.53125 1.1885,-1.051 1.781293,-2.690223 1.781293,-4.656223 C 14.000043,7.8718269 13.1147,5.5665 11.9375,3.625 11.3489,2.6542 10.7128,1.81715 10.125,1.15625 9.8311,0.82575 9.5554,0.5462 9.25,0.3125 8.9446,0.0788 8.6562,-0.1875 8,-0.1875 z M 8,1 c 1.095,0 5,5.6863 5,9 0,3.3137 -2.5613,5 -5,5 C 5.5612,15 3,13.3137 3,10 3,6.6863 6.905,1 8,1 z M 6.875,5.125 C 6.1783,5.1204 5.46995,5.8604 5.21875,6.9375 4.93185,8.1685 5.3393,9.3675 6.125,9.625 6.9107,9.8825 7.80685,9.106 8.09375,7.875 8.38075,6.644 7.9732,5.445 7.1875,5.1875 7.0893,5.1555 6.975,5.1257 6.875,5.125 z"
       transform="translate(-3364.4171,2100.7186)"
       id="path2997"
       inkscape:connector-curvature="0"
       sodipodi:nodetypes="ssccscsssccsssssssccsccc" />
  </g>
</svg>

<?xml version="1.0" encoding="UTF-8"?>
<svg id="d" width="16" height="16" version="1.1" xmlns="http://www.w3.org/2000/svg" xmlns:cc="http://creativecommons.org/ns#" xmlns:dc="http://purl.org/dc/elements/1.1/" xmlns:rdf="http://www.w3.org/1999/02/22-rdf-syntax-ns#">
	<metadata id="a">
		<rdf:RDF>
			<cc:Work rdf:about="">
				<dc:format>image/svg+xml</dc:format>
				<dc:type rdf:resource="http://purl.org/dc/dcmitype/StillImage"/>
				<dc:title/>
			</cc:Work>
		</rdf:RDF>
	</metadata>
	<defs id="f">
		<style id="current-color-scheme" type="text/css">.ColorScheme-Text {color:#090d11;}.ColorScheme-Background{color:#ffffff;}</style>
	</defs>
	<g id="c" transform="translate(3364.4 -2100.7)">
		<path id="b" d="m-3356.4 2101.7c-1.095 0-5 5.6863-5 9s2.5612 5 5 5c2.4387 0 5-1.6863 5-5s-3.905-9-5-9zm-1.125 4.125c0.1 7e-4 0.2143 0.03 0.3125 0.062 0.7857 0.2575 1.1932 1.4565 0.9062 2.6875-0.2869 1.231-1.183 2.0075-1.9687 1.75s-1.1932-1.4565-0.9063-2.6875c0.2512-1.0771 0.9596-1.8171 1.6563-1.8125z" style="fill-opacity:.75;fill:currentColor" class="ColorScheme-Text"/>
		<path id="e" transform="translate(-3364.4 2100.7)" d="m8-0.1875c-0.6562 0-0.9446 0.2663-1.25 0.5s-0.5811 0.51325-0.875 0.84375c-0.5878 0.6609-1.2239 1.498-1.8125 2.4688-1.1772 1.9415-2.0625 4.2468-2.0625 6.375 0 1.966 0.59281 3.6052 1.7812 4.6562 1.1885 1.0509 2.7228 1.5312 4.2188 1.5312 1.4959 0 3.0304-0.48035 4.2188-1.5312 1.1885-1.051 1.7813-2.6902 1.7813-4.6562 0-2.1282-0.88534-4.4335-2.0625-6.375-0.5886-0.9708-1.2247-1.8078-1.8125-2.4688-0.2939-0.3305-0.5696-0.61005-0.875-0.84375s-0.5938-0.5-1.25-0.5zm0 1.1875c1.095 0 5 5.6863 5 9s-2.5613 5-5 5c-2.4388 0-5-1.6863-5-5s3.905-9 5-9zm-1.125 4.125c-0.6967-0.0046-1.405 0.7354-1.6562 1.8125-0.2869 1.231 0.12055 2.43 0.90625 2.6875s1.6818-0.519 1.9688-1.75c0.287-1.231-0.12055-2.43-0.90625-2.6875-0.0982-0.032-0.2125-0.0618-0.3125-0.0625z" style="fill-opacity:.5;fill:currentColor" class="ColorScheme-Background"/>
	</g>
</svg>
